X: 26844
T: Mimi And The New Generation
R: polka
M: 2/4
K: Edorian
|:E/F/G/A/ Be|df B2|g>f ef|B2 B2|
b>a fe|fa Be|dB AF|1 B/c/B/A/ B/c/B/G/:|2 E2 E2||
|:b>a fe|fa B2|b>a fe|f2 fa|
b>a fe|fa Be|dB AF|1 E2 E2:|2 B/c/B/A/ B/c/B/G/||

